src/assets/filled/CardTick1.svg

<?xml version="1.0" encoding="UTF-8"?>
<svg width="24" height="24" viewBox="0 0 24 24" xmlns="http://www.w3.org/2000/svg">
 <path d="m2 11.46v5c0 2.29 1.85 4.14 4.14 4.14h11.71c2.29 0 4.15-1.86 4.15-4.15v-4.99c0-0.67-0.54-1.21-1.21-1.21h-17.58c-0.67 0-1.21 0.54-1.21 1.21zm6 5.79h-2c-0.41 0-0.75-0.34-0.75-0.75s0.34-0.75 0.75-0.75h2c0.41 0 0.75 0.34 0.75 0.75s-0.34 0.75-0.75 0.75zm6.5 0h-4c-0.41 0-0.75-0.34-0.75-0.75s0.34-0.75 0.75-0.75h4c0.41 0 0.75 0.34 0.75 0.75s-0.34 0.75-0.75 0.75z"/>
 <path d="m13.5 4.61v2.93c0 0.67-0.54 1.21-1.21 1.21h-9.08c-0.68 0-1.21-0.56-1.21-1.23 0.01-1.13 0.46-2.16 1.21-2.91s1.79-1.21 2.93-1.21h6.15c0.67 0 1.21 0.54 1.21 1.21z"/>
 <path d="m19.97 2h-2.94c-1.27 0-2.03 0.76-2.03 2.03v2.94c0 1.27 0.76 2.03 2.03 2.03h2.94c1.27 0 2.03-0.76 2.03-2.03v-2.94c0-1.27-0.76-2.03-2.03-2.03zm0.66 2.45-2.37 2.77c-0.09 0.11-0.23 0.18-0.37 0.18h-0.02c-0.14 0-0.27-0.05-0.37-0.15l-1.1-1.08c-0.2-0.2-0.2-0.53 0-0.73s0.53-0.21 0.73 0l0.7 0.69 2-2.34c0.19-0.22 0.51-0.24 0.73-0.06 0.23 0.18 0.25 0.51 0.07 0.72z"/>
</svg>

<svg width="24" height="24" viewBox="0 0 24 24"  xmlns="http://www.w3.org/2000/svg">
<path d="M2 11.46V16.46C2 18.75 3.85 20.6 6.14 20.6H17.85C20.14 20.6 22 18.74 22 16.45V11.46C22 10.79 21.46 10.25 20.79 10.25H3.21C2.54 10.25 2 10.79 2 11.46ZM8 17.25H6C5.59 17.25 5.25 16.91 5.25 16.5C5.25 16.09 5.59 15.75 6 15.75H8C8.41 15.75 8.75 16.09 8.75 16.5C8.75 16.91 8.41 17.25 8 17.25ZM14.5 17.25H10.5C10.09 17.25 9.75 16.91 9.75 16.5C9.75 16.09 10.09 15.75 10.5 15.75H14.5C14.91 15.75 15.25 16.09 15.25 16.5C15.25 16.91 14.91 17.25 14.5 17.25Z" />
<path d="M13.5 4.61002V7.54002C13.5 8.21002 12.96 8.75002 12.29 8.75002H3.21C2.53 8.75002 2 8.19002 2 7.52002C2.01 6.39002 2.46 5.36002 3.21 4.61002C3.96 3.86002 5 3.40002 6.14 3.40002H12.29C12.96 3.40002 13.5 3.94002 13.5 4.61002Z" />
<path d="M19.97 2H17.03C15.76 2 15 2.76 15 4.03V6.97C15 8.24 15.76 9 17.03 9H19.97C21.24 9 22 8.24 22 6.97V4.03C22 2.76 21.24 2 19.97 2ZM20.63 4.45L18.26 7.22C18.17 7.33 18.03 7.4 17.89 7.4C17.88 7.4 17.88 7.4 17.87 7.4C17.73 7.4 17.6 7.35 17.5 7.25L16.4 6.17C16.2 5.97 16.2 5.64 16.4 5.44C16.6 5.24 16.93 5.23 17.13 5.44L17.83 6.13L19.83 3.79C20.02 3.57 20.34 3.55 20.56 3.73C20.79 3.91 20.81 4.24 20.63 4.45Z" />
</svg>
